contributed-vectors/nozbe.svg

<svg xmlns="http://www.w3.org/2000/svg" xml:space="preserve" style="fill-rule:evenodd;clip-rule:evenodd;stroke-linejoin:round;stroke-miterlimit:2" viewBox="0 0 192 192"><path d="M164.5 21.5c0-5.519-4.481-10-10-10h-133c-5.519 0-10 4.481-10 10v133c0 5.519 4.481 10 10 10h133c5.519 0 10-4.481 10-10v-133Z" style="fill:#fff" transform="translate(8 8)"/><circle cx="94" cy="94" r="65.97" style="fill:#fff" transform="matrix(.5457 0 0 .5457 44.704 44.704)"/><path d="M163.189 66.411c3.41 8.532 5.286 17.843 5.286 27.589 0 41.104-33.371 74.475-74.475 74.475-41.104 0-74.475-33.371-74.475-74.475 0-41.104 33.371-74.475 74.475-74.475 12.726 0 24.71 3.199 35.187 8.833l-8.822 11.537A59.889 59.889 0 0 0 94 33.818c-33.215 0-60.182 26.967-60.182 60.182S60.785 154.182 94 154.182 154.182 127.215 154.182 94c0-5.328-.694-10.495-1.997-15.416l11.004-12.173Z" style="fill:#4a4a4a" transform="matrix(.48339 0 0 .48339 50.562 50.562)"/><path d="M163.332 49.815c-6.581-12.383-20.27-21.454-20.27-21.454l-58.176 76.076-21.585-21.059-10.003 15.399 34.484 34.616 75.55-83.578" style="fill:#98dc9a" transform="matrix(.48339 0 0 .48339 50.562 50.562)"/></svg>

<?xml version="1.0" encoding="UTF-8" standalone="no"?>
<!DOCTYPE svg PUBLIC "-//W3C//DTD SVG 1.1//EN" "http://www.w3.org/Graphics/SVG/1.1/DTD/svg11.dtd">
<svg width="100%" height="100%" viewBox="0 0 192 192" version="1.1" xmlns="http://www.w3.org/2000/svg" xmlns:xlink="http://www.w3.org/1999/xlink" xml:space="preserve" xmlns:serif="http://www.serif.com/" style="fill-rule:evenodd;clip-rule:evenodd;stroke-linejoin:round;stroke-miterlimit:2;">
    <g transform="matrix(1,0,0,1,8,8)">
        <path d="M164.5,21.5C164.5,15.981 160.019,11.5 154.5,11.5L21.5,11.5C15.981,11.5 11.5,15.981 11.5,21.5L11.5,154.5C11.5,160.019 15.981,164.5 21.5,164.5L154.5,164.5C160.019,164.5 164.5,160.019 164.5,154.5L164.5,21.5Z" style="fill:white;"/>
    </g>
    <g transform="matrix(0.483386,0,0,0.483386,50.5617,50.5617)">
        <g id="Layer1">
            <g>
                <g transform="matrix(1.12892,0,0,1.12892,-12.1187,-12.1187)">
                    <circle cx="94" cy="94" r="65.97" style="fill:white;"/>
                </g>
                <path d="M163.189,66.411C166.599,74.943 168.475,84.254 168.475,94C168.475,135.104 135.104,168.475 94,168.475C52.896,168.475 19.525,135.104 19.525,94C19.525,52.896 52.896,19.525 94,19.525C106.726,19.525 118.71,22.724 129.187,28.358L120.365,39.895C112.4,36.003 103.453,33.818 94,33.818C60.785,33.818 33.818,60.785 33.818,94C33.818,127.215 60.785,154.182 94,154.182C127.215,154.182 154.182,127.215 154.182,94C154.182,88.672 153.488,83.505 152.185,78.584L163.189,66.411Z" style="fill:rgb(74,74,74);"/>
                <path d="M163.332,49.815C156.751,37.432 143.062,28.361 143.062,28.361L84.886,104.437L63.301,83.378L53.298,98.777L87.782,133.393L163.332,49.815" style="fill:rgb(152,220,154);"/>
            </g>
        </g>
    </g>
</svg>
